!!!!SEGMENT: pl-stab--11a--001_rodowski-aleksander--litania-de-b-m-v-introdukcia.krn
!!!cenid: 18xx:3398
!!!COM: Rodowski, Aleksander
!!!COM-rismID: pe30009627
!!!CDT: <1790->1810
!!!CNT: Polish
!!!OPR: Litania de B.M.V
!!!OTL: Introdukcia
!!!OMV: 001
!!!PDT: 1801
!!!AGN:
!!!SMS-siglum: PL-STAb
!!!SMS-shelfmark: 11a
!!!SMS-shelfwork: M
!!!SMS-variant: Canto PL-STAb 11a: 3-5; Baſso PL-STAb 11a: 18-20
!!!SMS-altvar: Canto PL-STAb 11a: 6-8; Canto. PL-STAb 11a: 9-12; Baſso. PL-STAb 11a: 21-23
!!!NIFC-rismSourceID: 301050677
!!!NIFC-rismChildID: 301050677
!!!NIFC-islandoraID: pl-stab:2413
!!!URL-pdf-islandora: https://repozytorium.nifc.pl/islandora/object/pl-stab%3A2413/datastream/PDF/view
!!!URL-scan: https://polish.musicsources.pl/pl/lokalizacje/galeria/rekopisy/4403 @EN{Scan on Polish Music Sources Website} @PL{Skany w portalu Dziedzictwo Muzyki Polskiej w otwartym dostępie}
!!!ONB-nifc: UWAGA: części Litanii: 1. Introdukcia, 2. Kyrie, 3. Rosa mistica, 4. Regina angelorum, 5. Agnus Dei, 6. Christe audi nos
!!!AIN: 1 alto 1 bass 2 cor 1 organ 1 soprn 1 tenor 2 violn
!!!key: D
**kern	**fba	**dynam	**kern	**kern	**dynam	**kern	**kern	**kern	**kern	**kern	**kern
*part9	*	*part9	*part8	*part7	*part7	*part6	*part5	*part4	*part3	*part2	*part1
*group4	*	*	*group3	*group3	*	*group2	*group2	*group2	*group2	*group1	*group1
*staff9	*	*	*staff8	*staff7	*	*staff6	*staff5	*staff4	*staff3	*staff2	*staff1
*I"Organo	*	*	*I"Violino 2do	*I"Violino Primo	*	*I"Baſso	*I"Tenore	*I"Alto	*I"Canto	*I"Cornu Secundo	*I"Cornu Primo
*I'org	*	*	*I'vl 2	*I'vl 1	*	*I'B	*I'T	*I'A	*I'S	*I'cor 2	*I'cor 1
*Iorgan	*	*	*Ivioln	*Ivioln	*	*Ibass	*Itenor	*Ialto	*Isoprn	*Icor	*Icor
*ICklav	*	*	*ICstr	*ICstr	*	*ICvox	*ICvox	*ICvox	*ICvox	*ICbras	*ICbras
*IGcont	*	*	*	*	*	*	*	*	*	*	*
*clefF4	*	*	*clefG2	*clefG2	*	*clefF4	*clefC4	*clefC3	*clefC1	*clefG2	*clefG2
*	*	*	*	*	*	*	*	*	*	*ITrd4c7	*ITrd4c7
*k[f#c#]	*	*	*k[f#c#]	*k[f#c#]	*	*k[f#c#]	*k[c#f#]	*k[f#c#]	*k[c#f#]	*k[b-]	*k[b-]
*D:	*	*	*D:	*D:	*	*D:	*D:	*D:	*D:	*D:	*D:
*M2/2	*	*	*M2/2	*M2/2	*	*M2/2	*M2/2	*M2/2	*M2/2	*M2/2	*M2/2
*met(c)	*	*	*met(c)	*met(c|)	*	*met(c)	*met(c)	*met(c)	*met(c)	*met(c|)	*met(c|)
*>[A,A,B,B,C]	*>[A,A,B,B,C]	*>[A,A,B,B,C]	*>[A,A,B,B,C]	*>[A,A,B,B,C]	*>[A,A,B,B,C]	*>[A,A,B,B,C]	*>[A,A,B,B,C]	*>[A,A,B,B,C]	*>[A,A,B,B,C]	*>[A,A,B,B,C]	*>[A,A,B,B,C]
=1	=1	=1	=1	=1	=1	=1	=1	=1	=1	=1	=1
*>A	*>A	*>A	*>A	*>A	*>A	*>A	*>A	*>A	*>A	*>A	*>A
*2\right	*2\right	*2\right	*2\right	*2\right	*2\right	*2\right	*2\right	*2\right	*2\right	*2\right	*2\right
!	!	!	!	!	!	!	!	!	!LO:TX:t=P:problem:znaki: cc# zamiast c#	!	!
!	!	!	!	!	!	!	!LO:TX:a:B:t=Allegro	!	!LO:TX:a:B:t=Allegro	!	!
!LO:TX:a:B:t=Allegro	!	!LO:DY:t=for.	!LO:TX:a:B:t=Allegro	!LO:TX:a:B:t=Allegro	!LO:DY:rj:t=for&colon;	!LO:TX:a:B:t=Allegro	!LO:TX:a:t=16.	!	!LO:TX:a:t=16	!LO:TX:a:t=Tacet	!LO:TX:a:t=Tacet
4D\	.	f	4ff# 4a 4d/	4ddd 4ff# 4d\	f	00r	00r	00r	00r	1ryy	1ryy
4D\	.	.	4ff# 4a 4d/	4ddd 4ff# 4d\	.	.	.	.	.	.	.
4D\	.	.	4ff# 4a 4d/	4ddd 4ff# 4d\	.	.	.	.	.	.	.
4r	.	.	4r	8r	.	.	.	.	.	.	.
.	.	.	.	8d/	.	.	.	.	.	.	.
=2	=2	=2	=2	=2	=2	=2	=2	=2	=2	=2	=2
!LO:TX:a:t=2	!	!	!	!	!	!	!	!	!	!	!
0r	.	.	2r	8e/L	.	.	.	.	.	1ryy	1ryy
.	.	.	.	8d/	.	.	.	.	.	.	.
.	.	.	.	8e/	.	.	.	.	.	.	.
.	.	.	.	8f#/J	.	.	.	.	.	.	.
.	.	.	8e/L	8g/L	.	.	.	.	.	.	.
.	.	.	8d/	8f#/	.	.	.	.	.	.	.
.	.	.	8e/	8g/	.	.	.	.	.	.	.
.	.	.	8f#/J	8a/J	.	.	.	.	.	.	.
=3	=3	=3	=3	=3	=3	=3	=3	=3	=3	=3	=3
.	.	.	8g/L	8b\L	.	.	.	.	.	1ryy	1ryy
.	.	.	8f#/	8a\	.	.	.	.	.	.	.
.	.	.	8g/	8b\	.	.	.	.	.	.	.
.	.	.	8a/J	8cc#\J	.	.	.	.	.	.	.
.	.	.	8b/L	8dd\L	.	.	.	.	.	.	.
.	.	.	8a/	8cc#\	.	.	.	.	.	.	.
.	.	.	8b/	8dd\	.	.	.	.	.	.	.
.	.	.	8cc#/J	8ee\J	.	.	.	.	.	.	.
=4	=4	=4	=4	=4	=4	=4	=4	=4	=4	=4	=4
4D\	.	.	4dd 4d/	4ff#\	.	.	.	.	.	1ryy	1ryy
4D\	.	.	4ff# 4a 4d/	4ddd 4ff# 4d\	.	.	.	.	.	.	.
4D\	.	.	4ff# 4a 4d/	4ddd 4ff# 4d\	.	.	.	.	.	.	.
4r	.	.	8r	8r	.	.	.	.	.	.	.
.	.	.	8d/	8f#/	.	.	.	.	.	.	.
=5	=5	=5	=5	=5	=5	=5	=5	=5	=5	=5	=5
!LO:TX:a:t=2	!	!	!	!	!	!	!	!	!	!	!
0r	.	.	8e/L	8g/L	.	00r	00r	00r	00r	1ryy	1ryy
.	.	.	8d/	8f#/	.	.	.	.	.	.	.
.	.	.	8e/	8g/	.	.	.	.	.	.	.
.	.	.	8f#/J	8a/J	.	.	.	.	.	.	.
.	.	.	8g/L	8b/L	.	.	.	.	.	.	.
.	.	.	8f#/	8a/	.	.	.	.	.	.	.
.	.	.	8g/	8b/	.	.	.	.	.	.	.
.	.	.	8a/J	8cc#/J	.	.	.	.	.	.	.
!	!	!	!	!LO:LB:g=original	!	!	!	!	!	!	!
=6	=6	=6	=6	=6	=6	=6	=6	=6	=6	=6	=6
.	.	.	8b\L	8dd\L	.	.	.	.	.	1ryy	1ryy
.	.	.	8a\	8cc#\	.	.	.	.	.	.	.
.	.	.	8b\	8dd\	.	.	.	.	.	.	.
.	.	.	8cc#\J	8ee\J	.	.	.	.	.	.	.
.	.	.	8dd\L	8ff#\L	.	.	.	.	.	.	.
.	.	.	8cc#\	8ee\	.	.	.	.	.	.	.
.	.	.	8dd\	8ff#\	.	.	.	.	.	.	.
.	.	.	8ee\J	8gg\J	.	.	.	.	.	.	.
!	!	!	!LO:LB:g=original	!	!	!	!	!	!	!	!
=7	=7	=7	=7	=7	=7	=7	=7	=7	=7	=7	=7
*tremolo	*	*	*tremolo	*	*	*	*	*	*	*	*
8D\L	.	.	16ff#LL 16a\	4aa\	.	.	.	.	.	1ryy	1ryy
.	.	.	16ff# 16a\	.	.	.	.	.	.	.	.
8D\	.	.	16ff# 16a\	.	.	.	.	.	.	.	.
.	.	.	16ff# 16a\	.	.	.	.	.	.	.	.
8D\	.	.	16ff# 16a\	4ddd 4ff# 4d\	.	.	.	.	.	.	.
.	.	.	16ff# 16a\	.	.	.	.	.	.	.	.
8D\J	.	.	16ff# 16a\	.	.	.	.	.	.	.	.
.	.	.	16ff#JJ 16a\	.	.	.	.	.	.	.	.
8D\L	.	.	16ff#LL 16a\	4ddd 4ff# 4d\	.	.	.	.	.	.	.
.	.	.	16ff# 16a\	.	.	.	.	.	.	.	.
8D\	.	.	16ff# 16a\	.	.	.	.	.	.	.	.
.	.	.	16ff# 16a\	.	.	.	.	.	.	.	.
8D\	.	.	16ff# 16a\	4ddd 4ff# 4d\	.	.	.	.	.	.	.
.	.	.	16ff# 16a\	.	.	.	.	.	.	.	.
8D\J	.	.	16ff# 16a\	.	.	.	.	.	.	.	.
.	.	.	16ff#JJ 16a\	.	.	.	.	.	.	.	.
=8	=8	=8	=8	=8	=8	=8	=8	=8	=8	=8	=8
8E\L	.	.	16ggLL 16a\	8ddd\L	.	.	.	.	.	1ryy	1ryy
.	.	.	16gg 16a\	.	.	.	.	.	.	.	.
8E\	.	.	16gg 16a\	8ccc#\	.	.	.	.	.	.	.
.	.	.	16gg 16a\	.	.	.	.	.	.	.	.
8E\	.	.	16gg 16a\	8bb\	.	.	.	.	.	.	.
.	.	.	16gg 16a\	.	.	.	.	.	.	.	.
8E\J	.	.	16gg 16a\	8aa\J	.	.	.	.	.	.	.
.	.	.	16ggJJ 16a\	.	.	.	.	.	.	.	.
8E\L	.	.	16ggLL 16a\	4.aa\	.	.	.	.	.	.	.
.	.	.	16gg 16a\	.	.	.	.	.	.	.	.
8E\	.	.	16gg 16a\	.	.	.	.	.	.	.	.
.	.	.	16gg 16a\	.	.	.	.	.	.	.	.
8E\	.	.	16gg 16a\	.	.	.	.	.	.	.	.
.	.	.	16gg 16a\	.	.	.	.	.	.	.	.
8E\J	.	.	16gg 16a\	8bb\	.	.	.	.	.	.	.
.	.	.	16ggJJ 16a\	.	.	.	.	.	.	.	.
=9	=9	=9	=9	=9	=9	=9	=9	=9	=9	=9	=9
8C#/L	.	.	16eeLL 16a\	8aa\L	.	00r	00r	00r	00r	1ryy	1ryy
.	.	.	16ee 16a\	.	.	.	.	.	.	.	.
8C#/	.	.	16ee 16a\	8gg\	.	.	.	.	.	.	.
.	.	.	16ee 16a\	.	.	.	.	.	.	.	.
8C#/	.	.	16ee 16a\	8gg\	.	.	.	.	.	.	.
.	.	.	16ee 16a\	.	.	.	.	.	.	.	.
8C#/J	.	.	16ee 16a\	8gg\J	.	.	.	.	.	.	.
.	.	.	16eeJJ 16a\	.	.	.	.	.	.	.	.
8C#/L	.	.	16eeLL 16a\	16aa\LL	.	.	.	.	.	.	.
.	.	.	16ee 16a\	16gg\	.	.	.	.	.	.	.
8C#/	.	.	16ee 16a\	16ff#\	.	.	.	.	.	.	.
.	.	.	16ee 16a\	16gg\JJ	.	.	.	.	.	.	.
8C#/	.	.	16ee 16a\	8aa\L	.	.	.	.	.	.	.
.	.	.	16ee 16a\	.	.	.	.	.	.	.	.
8C#/J	.	.	16ee 16a\	8gg\J	.	.	.	.	.	.	.
.	.	.	16eeJJ 16a\	.	.	.	.	.	.	.	.
*	*	*	*Xtremolo	*	*	*	*	*	*	*	*
=10	=10	=10	=10	=10	=10	=10	=10	=10	=10	=10	=10
8D\L	.	.	16dd\LL	8gg\L	.	.	.	.	.	1ryy	1ryy
.	.	.	16dd\	.	.	.	.	.	.	.	.
8D\	.	.	16a\	8ff#\	.	.	.	.	.	.	.
.	.	.	16a\JJ	.	.	.	.	.	.	.	.
8D\	.	.	16f#/LL	8ff#\	.	.	.	.	.	.	.
.	.	.	16f#/	.	.	.	.	.	.	.	.
8D\J	.	.	16a/	8ff#\J	.	.	.	.	.	.	.
.	.	.	16a/JJ	.	.	.	.	.	.	.	.
*Xtremolo	*	*	*	*	*	*	*	*	*	*	*
8D\L	.	.	16d/LL	4.ff#\	.	.	.	.	.	.	.
.	.	.	16d/	.	.	.	.	.	.	.	.
8D\	.	.	16c#/	.	.	.	.	.	.	.	.
.	.	.	16c#/JJ	.	.	.	.	.	.	.	.
8E\	.	.	16d/LL	.	.	.	.	.	.	.	.
.	.	.	16d/	.	.	.	.	.	.	.	.
8E\J	.	.	16e/	8gg\	.	.	.	.	.	.	.
.	.	.	16e/JJ	.	.	.	.	.	.	.	.
!	!	!	!	!LO:LB:g=original	!	!	!	!	!	!	!
=11	=11	=11	=11	=11	=11	=11	=11	=11	=11	=11	=11
4F#\	x 6	.	16d/LL	4aa\	.	.	.	.	.	1ryy	1ryy
.	.	.	16a/	.	.	.	.	.	.	.	.
.	.	.	16f#/	.	.	.	.	.	.	.	.
.	.	.	16a/JJ	.	.	.	.	.	.	.	.
*	*	*	*rep	*	*	*	*	*	*	*	*
8D\L	x 3_	.	16d/LL	8ff#\L	.	.	.	.	.	.	.
.	.	.	16a/	.	.	.	.	.	.	.	.
8D\J	.	.	16f#/	8ff#\J	.	.	.	.	.	.	.
.	.	.	16a/JJ	.	.	.	.	.	.	.	.
*	*	*	*Xrep	*	*	*	*	*	*	*	*
*	*	*	*rep	*	*	*	*	*	*	*	*
4D\	.	.	16d/LL	4ff#\	.	.	.	.	.	.	.
.	.	.	16a/	.	.	.	.	.	.	.	.
.	.	.	16f#/	.	.	.	.	.	.	.	.
.	.	.	16a/JJ	.	.	.	.	.	.	.	.
*	*	*	*Xrep	*	*	*	*	*	*	*	*
*	*	*	*rep	*	*	*	*	*	*	*	*
8C#\L	.	.	16d/LL	16gg\LL	.	.	.	.	.	.	.
.	.	.	16a/	16ff#\	.	.	.	.	.	.	.
8D\J	.	.	16f#/	16ee\	.	.	.	.	.	.	.
.	.	.	16a/JJ	16ff#\JJ	.	.	.	.	.	.	.
*	*	*	*Xrep	*	*	*	*	*	*	*	*
=12	=12	=12	=12	=12	=12	=12	=12	=12	=12	=12	=12
4E\	x x	.	16e/LL	16aa\LL	.	.	.	.	.	1ryy	1ryy
.	.	.	16a/	16gg\	.	.	.	.	.	.	.
.	.	.	16g/	16ff#\	.	.	.	.	.	.	.
.	.	.	16a/JJ	16gg\JJ	.	.	.	.	.	.	.
*	*	*	*rep	*	*	*	*	*	*	*	*
4C#\	.	.	16e/LL	4ee\	.	.	.	.	.	.	.
.	.	.	16a/	.	.	.	.	.	.	.	.
.	.	.	16g/	.	.	.	.	.	.	.	.
.	.	.	16a/JJ	.	.	.	.	.	.	.	.
*	*	*	*Xrep	*	*	*	*	*	*	*	*
*	*	*	*rep	*	*	*	*	*	*	*	*
!LO:LB:g=original	!	!	!	!	!	!	!	!	!	!	!
8r	.	.	16e/LL	8r	.	.	.	.	.	.	.
.	.	.	16a/	.	.	.	.	.	.	.	.
8C#\L	x 3_	.	16g/	8ee\L	.	.	.	.	.	.	.
.	.	.	16a/JJ	.	.	.	.	.	.	.	.
*	*	*	*Xrep	*	*	*	*	*	*	*	*
*	*	*	*rep	*	*	*	*	*	*	*	*
8D\	.	.	16e/LL	8ff#\	.	.	.	.	.	.	.
.	.	.	16a/	.	.	.	.	.	.	.	.
8E\J	.	.	16g/	8gg\J	.	.	.	.	.	.	.
.	.	.	16a/JJ	.	.	.	.	.	.	.	.
*	*	*	*Xrep	*	*	*	*	*	*	*	*
!	!	!	!LO:LB:g=original	!	!	!	!	!	!	!	!
=13	=13	=13	=13	=13	=13	=13	=13	=13	=13	=13	=13
4F#\	.	.	16d/LL	4aa\	.	00r	00r	00r	00r	1ryy	1ryy
.	.	.	16a/	.	.	.	.	.	.	.	.
.	.	.	16f#/	.	.	.	.	.	.	.	.
.	.	.	16a/JJ	.	.	.	.	.	.	.	.
*	*	*	*rep	*	*	*	*	*	*	*	*
8D\L	.	.	16d/LL	8ff#\L	.	.	.	.	.	.	.
.	.	.	16a/	.	.	.	.	.	.	.	.
8D\J	.	.	16f#/	8ff#\J	.	.	.	.	.	.	.
.	.	.	16a/JJ	.	.	.	.	.	.	.	.
*	*	*	*Xrep	*	*	*	*	*	*	*	*
*	*	*	*rep	*	*	*	*	*	*	*	*
4D\	.	.	16d/LL	4ff#\	.	.	.	.	.	.	.
.	.	.	16a/	.	.	.	.	.	.	.	.
.	.	.	16f#/	.	.	.	.	.	.	.	.
.	.	.	16a/JJ	.	.	.	.	.	.	.	.
*	*	*	*Xrep	*	*	*	*	*	*	*	*
*	*	*	*rep	*	*	*	*	*	*	*	*
8C#\L	.	.	16d/LL	16gg\LL	.	.	.	.	.	.	.
.	.	.	16a/	16ff#\	.	.	.	.	.	.	.
8D\J	.	.	16f#/	16ee\	.	.	.	.	.	.	.
.	.	.	16a/JJ	16ff#\JJ	.	.	.	.	.	.	.
*	*	*	*Xrep	*	*	*	*	*	*	*	*
=14	=14	=14	=14	=14	=14	=14	=14	=14	=14	=14	=14
4E\	.	.	16e/LL	16aa\LL	.	.	.	.	.	1ryy	1ryy
.	.	.	16a/	16gg\	.	.	.	.	.	.	.
.	.	.	16g/	16ff#\	.	.	.	.	.	.	.
.	.	.	16a/JJ	16gg\JJ	.	.	.	.	.	.	.
*	*	*	*rep	*	*	*	*	*	*	*	*
4C#\	.	.	16e/LL	4ee\	.	.	.	.	.	.	.
.	.	.	16a/	.	.	.	.	.	.	.	.
.	.	.	16g/	.	.	.	.	.	.	.	.
.	.	.	16a/JJ	.	.	.	.	.	.	.	.
*	*	*	*Xrep	*	*	*	*	*	*	*	*
*	*	*	*rep	*	*	*	*	*	*	*	*
8r	.	.	16e/LL	8r	.	.	.	.	.	.	.
.	.	.	16a/	.	.	.	.	.	.	.	.
8C#\L	.	.	16g/	8ee\L	.	.	.	.	.	.	.
.	.	.	16a/JJ	.	.	.	.	.	.	.	.
*	*	*	*Xrep	*	*	*	*	*	*	*	*
*	*	*	*rep	*	*	*	*	*	*	*	*
8D\	.	.	16e/LL	8ff#\	.	.	.	.	.	.	.
.	.	.	16a/	.	.	.	.	.	.	.	.
8E\J	.	.	16g/	8gg\J	.	.	.	.	.	.	.
.	.	.	16a/JJ	.	.	.	.	.	.	.	.
*	*	*	*Xrep	*	*	*	*	*	*	*	*
=15	=15	=15	=15	=15	=15	=15	=15	=15	=15	=15	=15
8D\L	x 3	.	16d/LL	4ff# 4a 4d/	.	.	.	.	.	1ryy	1ryy
.	.	.	16a/	.	.	.	.	.	.	.	.
8C#\	.	.	16f#/	.	.	.	.	.	.	.	.
.	.	.	16a/JJ	.	.	.	.	.	.	.	.
*	*	*	*rep	*	*	*	*	*	*	*	*
8D\	.	.	16d/LL	4ff# 4a 4d/	.	.	.	.	.	.	.
.	.	.	16a/	.	.	.	.	.	.	.	.
8BB\J	.	.	16f#/	.	.	.	.	.	.	.	.
.	.	.	16a/JJ	.	.	.	.	.	.	.	.
*	*	*	*Xrep	*	*	*	*	*	*	*	*
!LO:TX:a:t=P:problem:mixed beam	!	!	!	!	!	!	!	!	!	!	!
8E\L	X #	.	16e/LL	4gg#X 4b/	.	.	.	.	.	.	.
.	.	.	16dd/	.	.	.	.	.	.	.	.
8D#X\	.	.	16b/	.	.	.	.	.	.	.	.
.	.	.	16dd/JJ	.	.	.	.	.	.	.	.
*	*	*	*rep	*	*	*	*	*	*	*	*
8E\	.	.	16e/LL	4gg# 4b/	.	.	.	.	.	.	.
.	.	.	16dd/	.	.	.	.	.	.	.	.
8EE/J	.	.	16b/	.	.	.	.	.	.	.	.
.	.	.	16dd/JJ	.	.	.	.	.	.	.	.
*	*	*	*Xrep	*	*	*	*	*	*	*	*
!	!	!	!	!LO:LB:g=original	!	!	!	!	!	!	!
=16	=16	=16	=16	=16	=16	=16	=16	=16	=16	=16	=16
!LO:TX:a:t=P:problem:mixed beam	!	!	!	!	!	!	!	!	!	!	!
8AA/L	x 8	.	4cc# 4e/	4aa 4cc#/	.	.	.	.	.	1ryy	1ryy
8A\	.	.	.	.	.	.	.	.	.	.	.
8E\	.	.	4cc# 4e/	4aa 4cc#/	.	.	.	.	.	.	.
8C#\J	.	.	.	.	.	.	.	.	.	.	.
4AA/	.	.	4cc# 4e/	4aa 4cc#/	.	.	.	.	.	.	.
4r	.	.	4r	4r	.	.	.	.	.	.	.
=17:|!|:	=17:|!|:	=17:|!|:	=17:|!|:	=17:|!|:	=17:|!|:	=17:|!|:	=17:|!|:	=17:|!|:	=17:|!|:	=17:|!|:	=17:|!|:
*>B	*>B	*>B	*>B	*>B	*>B	*>B	*>B	*>B	*>B	*>B	*>B
!	!	!LO:DY:t=p.	!	!	!	!	!LO:TX:a:t=11	!	!LO:TX:a:t=11	!	!
4AA/	.	p	16e/LL	4r	.	00r	00r	00r	00r	1ryy	1ryy
.	.	.	16a/	.	.	.	.	.	.	.	.
.	.	.	16g/	.	.	.	.	.	.	.	.
.	.	.	16a/JJ	.	.	.	.	.	.	.	.
*	*	*	*rep	*	*	*	*	*	*	*	*
!	!	!	!	!	!LO:DY:a:rj:t=p.	!	!	!	!	!	!
4r	.	.	16e/LL	8aa\L	p	.	.	.	.	.	.
.	.	.	16a/	.	.	.	.	.	.	.	.
.	.	.	16g/	8aa\J	.	.	.	.	.	.	.
.	.	.	16a/JJ	.	.	.	.	.	.	.	.
*	*	*	*Xrep	*	*	*	*	*	*	*	*
*	*	*	*rep	*	*	*	*	*	*	*	*
4A\	.	.	16e/LL	4aa\	.	.	.	.	.	.	.
.	.	.	16a/	.	.	.	.	.	.	.	.
.	.	.	16g/	.	.	.	.	.	.	.	.
.	.	.	16a/JJ	.	.	.	.	.	.	.	.
*	*	*	*Xrep	*	*	*	*	*	*	*	*
*	*	*	*rep	*	*	*	*	*	*	*	*
4r	.	.	16e/LL	8bb\L	.	.	.	.	.	.	.
.	.	.	16a/	.	.	.	.	.	.	.	.
.	.	.	16g/	8ccc#\J	.	.	.	.	.	.	.
.	.	.	16a/JJ	.	.	.	.	.	.	.	.
*	*	*	*Xrep	*	*	*	*	*	*	*	*
!	!	!	!LO:LB:g=original	!	!	!	!	!	!	!	!
=18	=18	=18	=18	=18	=18	=18	=18	=18	=18	=18	=18
4D\	.	.	16d/LL	4.ddd\	.	.	.	.	.	1ryy	1ryy
.	.	.	16a/	.	.	.	.	.	.	.	.
.	.	.	16f#/	.	.	.	.	.	.	.	.
.	.	.	16a/JJ	.	.	.	.	.	.	.	.
*	*	*	*rep	*	*	*	*	*	*	*	*
4r	.	.	16d/LL	.	.	.	.	.	.	.	.
.	.	.	16a/	.	.	.	.	.	.	.	.
.	.	.	16f#/	16ccc#\LL	.	.	.	.	.	.	.
.	.	.	16a/JJ	16bb\JJ	.	.	.	.	.	.	.
*	*	*	*Xrep	*	*	*	*	*	*	*	*
*	*	*	*rep	*	*	*	*	*	*	*	*
4DD/	.	.	16d/LL	4aa\	.	.	.	.	.	.	.
.	.	.	16a/	.	.	.	.	.	.	.	.
.	.	.	16f#/	.	.	.	.	.	.	.	.
.	.	.	16a/JJ	.	.	.	.	.	.	.	.
*	*	*	*Xrep	*	*	*	*	*	*	*	*
*	*	*	*rep	*	*	*	*	*	*	*	*
4r	.	.	16d/LL	4r	.	.	.	.	.	.	.
.	.	.	16a/	.	.	.	.	.	.	.	.
.	.	.	16f#/	.	.	.	.	.	.	.	.
.	.	.	16a/JJ	.	.	.	.	.	.	.	.
*	*	*	*Xrep	*	*	*	*	*	*	*	*
=19	=19	=19	=19	=19	=19	=19	=19	=19	=19	=19	=19
4AA/	.	.	16e/LL	8bb\L	.	.	.	.	.	1ryy	1ryy
.	.	.	16a/	.	.	.	.	.	.	.	.
.	.	.	16g/	8aa\	.	.	.	.	.	.	.
.	.	.	16a/JJ	.	.	.	.	.	.	.	.
*	*	*	*rep	*	*	*	*	*	*	*	*
4r	.	.	16e/LL	8aa\	.	.	.	.	.	.	.
.	.	.	16a/	.	.	.	.	.	.	.	.
.	.	.	16g/	8aa\J	.	.	.	.	.	.	.
.	.	.	16a/JJ	.	.	.	.	.	.	.	.
*	*	*	*Xrep	*	*	*	*	*	*	*	*
*	*	*	*rep	*	*	*	*	*	*	*	*
4A\	.	.	16e/LL	8aa\L	.	.	.	.	.	.	.
.	.	.	16a/	.	.	.	.	.	.	.	.
.	.	.	16g/	8aa\	.	.	.	.	.	.	.
.	.	.	16a/JJ	.	.	.	.	.	.	.	.
*	*	*	*Xrep	*	*	*	*	*	*	*	*
*	*	*	*rep	*	*	*	*	*	*	*	*
4r	.	.	16e/LL	8bb\	.	.	.	.	.	.	.
.	.	.	16a/	.	.	.	.	.	.	.	.
.	.	.	16g/	8ccc#\J	.	.	.	.	.	.	.
.	.	.	16a/JJ	.	.	.	.	.	.	.	.
*	*	*	*Xrep	*	*	*	*	*	*	*	*
!LO:LB:g=original	!	!	!	!	!	!	!	!	!	!	!
=20	=20	=20	=20	=20	=20	=20	=20	=20	=20	=20	=20
4D\	.	.	16d/LL	4.ddd\	.	.	.	.	.	1ryy	1ryy
.	.	.	16a/	.	.	.	.	.	.	.	.
.	.	.	16f#/	.	.	.	.	.	.	.	.
.	.	.	16a/JJ	.	.	.	.	.	.	.	.
*	*	*	*rep	*	*	*	*	*	*	*	*
4r	.	.	16d/LL	.	.	.	.	.	.	.	.
.	.	.	16a/	.	.	.	.	.	.	.	.
.	.	.	16f#/	16ccc#\LL	.	.	.	.	.	.	.
.	.	.	16a/JJ	16bb\JJ	.	.	.	.	.	.	.
*	*	*	*Xrep	*	*	*	*	*	*	*	*
*	*	*	*rep	*	*	*	*	*	*	*	*
4DD/	.	.	16d/LL	4aa\	.	.	.	.	.	.	.
.	.	.	16a/	.	.	.	.	.	.	.	.
.	.	.	16f#/	.	.	.	.	.	.	.	.
.	.	.	16a/JJ	.	.	.	.	.	.	.	.
*	*	*	*Xrep	*	*	*	*	*	*	*	*
*	*	*	*rep	*	*	*	*	*	*	*	*
4r	.	.	16d/LL	4r	.	.	.	.	.	.	.
.	.	.	16a/	.	.	.	.	.	.	.	.
.	.	.	16f#/	.	.	.	.	.	.	.	.
.	.	.	16a/JJ	.	.	.	.	.	.	.	.
*	*	*	*Xrep	*	*	*	*	*	*	*	*
!	!	!	!	!LO:LB:g=original	!	!	!	!	!	!	!
=21	=21	=21	=21	=21	=21	=21	=21	=21	=21	=21	=21
*	*	*	*tremolo	*tremolo	*	*	*	*	*	*	*
!	!	!	!	!	!LO:DY:a:t=for	!	!	!	!	!	!
8B\L	6_ 3_	.	16ddLL 16d/	16gg\LL	f	00r	00r	00r	00r	1ryy	1ryy
.	.	.	16dd 16d/	16gg\	.	.	.	.	.	.	.
8B\	.	.	16dd 16d/	16gg\	.	.	.	.	.	.	.
.	.	.	16dd 16d/	16gg\JJ	.	.	.	.	.	.	.
8A\	6 _	.	16dd 16d/	16ff#\LL	.	.	.	.	.	.	.
.	.	.	16dd 16d/	16ff#\	.	.	.	.	.	.	.
8A\J	.	.	16dd 16d/	16ff#\	.	.	.	.	.	.	.
.	.	.	16ddJJ 16d/	16ff#\JJ	.	.	.	.	.	.	.
8G\L	.	.	16ddLL 16d/	16bb\LL	.	.	.	.	.	.	.
.	.	.	16dd 16d/	16bb\	.	.	.	.	.	.	.
8G\	.	.	16dd 16d/	16bb\	.	.	.	.	.	.	.
.	.	.	16dd 16d/	16bb\JJ	.	.	.	.	.	.	.
8F#\	.	.	16dd 16d/	16aa\LL	.	.	.	.	.	.	.
.	.	.	16dd 16d/	16aa\	.	.	.	.	.	.	.
8F#\J	.	.	16dd 16d/	16aa\	.	.	.	.	.	.	.
.	.	.	16ddJJ 16d/	16aa\JJ	.	.	.	.	.	.	.
=22	=22	=22	=22	=22	=22	=22	=22	=22	=22	=22	=22
8E\L	x #	.	16ddLL 16d/	16gg#X\LL	.	.	.	.	.	1ryy	1ryy
.	.	.	16dd 16d/	16gg#\	.	.	.	.	.	.	.
8E\	.	.	16dd 16d/	16gg#\	.	.	.	.	.	.	.
.	.	.	16dd 16d/	16gg#\JJ	.	.	.	.	.	.	.
8D\	.	.	16dd 16d/	16ee\LL	.	.	.	.	.	.	.
.	.	.	16dd 16d/	16ee\	.	.	.	.	.	.	.
8D\J	.	.	16dd 16d/	16ee\	.	.	.	.	.	.	.
.	.	.	16ddJJ 16d/	16ee\JJ	.	.	.	.	.	.	.
*	*	*	*Xtremolo	*Xtremolo	*	*	*	*	*	*	*
8C#/L	x 5	.	16cc#\LL	16ggn\LL	.	.	.	.	.	.	.
.	.	.	16cc#\	16gg\	.	.	.	.	.	.	.
8AA/	.	.	16ee\	16ee\	.	.	.	.	.	.	.
.	.	.	16ee\JJ	16ee\JJ	.	.	.	.	.	.	.
8BB/	.	.	16cc#\LL	16cc#\LL	.	.	.	.	.	.	.
.	.	.	16cc#\	16cc#\	.	.	.	.	.	.	.
8C#/J	.	.	16g\	16g\	.	.	.	.	.	.	.
.	.	.	16g\JJ	16g\JJ	.	.	.	.	.	.	.
!	!	!	!	!	!	!	!	!	!	!	!
=23	=23	=23	=23	=23	=23	=23	=23	=23	=23	=23	=23
*	*	*	*tremolo	*tremolo	*	*	*	*	*	*	*
8D\L	.	.	16f#LL 16A/	16f#/LL	.	.	.	.	.	1ryy	1ryy
.	.	.	16f# 16A/	16f#/	.	.	.	.	.	.	.
8D\	.	.	16f# 16A/	16f#/	.	.	.	.	.	.	.
.	.	.	16f# 16A/	16f#/JJ	.	.	.	.	.	.	.
8B\	.	.	16f# 16A/	16dd\LL	.	.	.	.	.	.	.
.	.	.	16f# 16A/	16dd\	.	.	.	.	.	.	.
8B\J	.	.	16f# 16A/	16dd\	.	.	.	.	.	.	.
.	.	.	16f#JJ 16A/	16dd\JJ	.	.	.	.	.	.	.
8G\L	.	.	16gLL 16A/	16ee\LL	.	.	.	.	.	.	.
.	.	.	16g 16A/	16ee\	.	.	.	.	.	.	.
8G\	.	.	16g 16A/	16ee\	.	.	.	.	.	.	.
.	.	.	16g 16A/	16ee\JJ	.	.	.	.	.	.	.
8A\	.	.	16g 16A/	16cc#\LL	.	.	.	.	.	.	.
.	.	.	16g 16A/	16cc#\	.	.	.	.	.	.	.
8A\J	.	.	16g 16A/	16cc#\	.	.	.	.	.	.	.
.	.	.	16gJJ 16A/	16cc#\JJ	.	.	.	.	.	.	.
!	!	!	!LO:LB:g=original	!	!	!	!	!	!	!	!
=24	=24	=24	=24	=24	=24	=24	=24	=24	=24	=24	=24
8B\L	6 3	.	16ddLL 16d/	16gg\LL	.	.	.	.	.	1ryy	1ryy
.	.	.	16dd 16d/	16gg\	.	.	.	.	.	.	.
8B\	.	.	16dd 16d/	16gg\	.	.	.	.	.	.	.
.	.	.	16dd 16d/	16gg\JJ	.	.	.	.	.	.	.
8A\	.	.	16dd 16d/	16ff#\LL	.	.	.	.	.	.	.
.	.	.	16dd 16d/	16ff#\	.	.	.	.	.	.	.
8A\J	.	.	16dd 16d/	16ff#\	.	.	.	.	.	.	.
.	.	.	16ddJJ 16d/	16ff#\JJ	.	.	.	.	.	.	.
8G\L	.	.	16ddLL 16d/	16bb\LL	.	.	.	.	.	.	.
.	.	.	16dd 16d/	16bb\	.	.	.	.	.	.	.
8G\	.	.	16dd 16d/	16bb\	.	.	.	.	.	.	.
.	.	.	16dd 16d/	16bb\JJ	.	.	.	.	.	.	.
8F#\	.	.	16dd 16d/	16aa\LL	.	.	.	.	.	.	.
.	.	.	16dd 16d/	16aa\	.	.	.	.	.	.	.
8F#\J	.	.	16dd 16d/	16aa\	.	.	.	.	.	.	.
.	.	.	16ddJJ 16d/	16aa\JJ	.	.	.	.	.	.	.
=25	=25	=25	=25	=25	=25	=25	=25	=25	=25	=25	=25
8E\L	x #	.	16ddLL 16d/	16gg#X\LL	.	0r	0r	0r	0r	1ryy	1ryy
.	.	.	16dd 16d/	16gg#\	.	.	.	.	.	.	.
8E\	.	.	16dd 16d/	16gg#\	.	.	.	.	.	.	.
.	.	.	16dd 16d/	16gg#\JJ	.	.	.	.	.	.	.
8D\	.	.	16dd 16d/	16ee\LL	.	.	.	.	.	.	.
.	.	.	16dd 16d/	16ee\	.	.	.	.	.	.	.
8D\J	.	.	16dd 16d/	16ee\	.	.	.	.	.	.	.
.	.	.	16ddJJ 16d/	16ee\JJ	.	.	.	.	.	.	.
*	*	*	*Xtremolo	*Xtremolo	*	*	*	*	*	*	*
8C#/L	x 5	.	16cc#\LL	16ggn\LL	.	.	.	.	.	.	.
.	.	.	16cc#\	16gg\	.	.	.	.	.	.	.
8AA/	.	.	16ee\	16ee\	.	.	.	.	.	.	.
.	.	.	16ee\JJ	16ee\JJ	.	.	.	.	.	.	.
8BB/	.	.	16cc#\LL	16cc#\LL	.	.	.	.	.	.	.
.	.	.	16cc#\	16cc#\	.	.	.	.	.	.	.
8C#/J	.	.	16g\	16g\	.	.	.	.	.	.	.
.	.	.	16g\JJ	16g\JJ	.	.	.	.	.	.	.
!	!	!	!	!LO:LB:g=original	!	!	!	!	!	!	!
=26	=26	=26	=26	=26	=26	=26	=26	=26	=26	=26	=26
*	*	*	*tremolo	*tremolo	*	*	*	*	*	*	*
8D/L	.	.	16f#LL 16A/	16f#/LL	.	.	.	.	.	1ryy	1ryy
.	.	.	16f# 16A/	16f#/	.	.	.	.	.	.	.
8D/	.	.	16f# 16A/	16f#/	.	.	.	.	.	.	.
.	.	.	16f# 16A/	16f#/JJ	.	.	.	.	.	.	.
8BB/	.	.	16f# 16A/	16dd\LL	.	.	.	.	.	.	.
.	.	.	16f# 16A/	16dd\	.	.	.	.	.	.	.
8BB/J	.	.	16f# 16A/	16dd\	.	.	.	.	.	.	.
.	.	.	16f#JJ 16A/	16dd\JJ	.	.	.	.	.	.	.
!LO:LB:g=original	!	!	!	!	!	!	!	!	!	!	!
8GG/L	.	.	16gLL 16A/	16ee\LL	.	.	.	.	.	.	.
.	.	.	16g 16A/	16ee\	.	.	.	.	.	.	.
8GG/	.	.	16g 16A/	16ee\	.	.	.	.	.	.	.
.	.	.	16g 16A/	16ee\JJ	.	.	.	.	.	.	.
8AA/	.	.	16g 16A/	16cc#\LL	.	.	.	.	.	.	.
.	.	.	16g 16A/	16cc#\	.	.	.	.	.	.	.
8AA/J	.	.	16g 16A/	16cc#\	.	.	.	.	.	.	.
.	.	.	16gJJ 16A/	16cc#\JJ	.	.	.	.	.	.	.
*	*	*	*Xtremolo	*	*	*	*	*	*	*	*
=27	=27	=27	=27	=27	=27	=27	=27	=27	=27	=27	=27
4D/	.	.	4f# 4A/	4dd\	.	1r	1r	1r	1r	1ryy	1ryy
4D/	.	.	4f# 4A/	4ff# 4a 4d/	.	.	.	.	.	.	.
4D/	.	.	4f# 4A/	4ff# 4a 4d/	.	.	.	.	.	.	.
4r	.	.	4r	4r	.	.	.	.	.	.	.
=28:|!	=28:|!	=28:|!	=28:|!	=28:|!	=28:|!	=28:|!	=28:|!	=28:|!	=28:|!	=28:|!	=28:|!
*>C	*>C	*>C	*>C	*>C	*>C	*>C	*>C	*>C	*>C	*>C	*>C
!	!	!	!	!	!LO:DY:t=p.	!LO:TX:a:t=3	!LO:TX:a:t=3	!	!LO:TX:a:t=3	!	!
4E\	7 #	.	4dd 4e/	4gg#X 4b/	p	0r	0r	0r	0r	1ryy	1ryy
4E\	.	.	4dd 4e/	4gg# 4b/	.	.	.	.	.	.	.
4E\	.	.	4dd 4e/	4gg# 4b/	.	.	.	.	.	.	.
4r	.	.	4r	4r	.	.	.	.	.	.	.
=29	=29	=29	=29	=29	=29	=29	=29	=29	=29	=29	=29
!	!	!LO:DY:t=p.	!	!	!	!	!	!	!	!	!
4AA/	.	p	8c#/L	4.aa\	.	.	.	.	.	1ryy	1ryy
.	.	.	8e/	.	.	.	.	.	.	.	.
4A\	.	.	8a/	.	.	.	.	.	.	.	.
.	.	.	8e/J	8aa\	.	.	.	.	.	.	.
2r	.	.	8c#/L	8ccc#\L	.	.	.	.	.	.	.
.	.	.	8e/	8aa\	.	.	.	.	.	.	.
.	.	.	8c#/	8eee\	.	.	.	.	.	.	.
.	.	.	8e/J	8ccc#\J	.	.	.	.	.	.	.
=30	=30	=30	=30	=30	=30	=30	=30	=30	=30	=30	=30
4AA/	.	.	8c#/L	4.aa\	.	1r	1r	1r	1r	1ryy	1ryy
.	.	.	8e/	.	.	.	.	.	.	.	.
4A\	.	.	8a/	.	.	.	.	.	.	.	.
.	.	.	8e/J	8aa\	.	.	.	.	.	.	.
2r	.	.	8c#/L	8ccc#\L	.	.	.	.	.	.	.
.	.	.	8e/	8aa\	.	.	.	.	.	.	.
.	.	.	8c#/	8eee\	.	.	.	.	.	.	.
.	.	.	8e/J	8ccc#\J	.	.	.	.	.	.	.
=31	=31	=31	=31	=31	=31	=31	=31	=31	=31	=31	=31
1AA;;	.	.	2cc# 2e;</	1aa;;	.	1r;	1r;	1r;	1r;	1ryy	1ryy
.	.	.	2r	.	.	.	.	.	.	.	.
==	==	==	==	==	==	==	==	==	==	==	==
*-	*-	*-	*-	*-	*-	*-	*-	*-	*-	*-	*-
!!!system-decoration: [(g1)][(g2)][(g3)]g4
!!!RDF**kern: > = above
!!!RDF**kern: < = below
!!!ENC: Katarzyna Serwa
!!!END: 2021-11-25
!!!ENC: Berenika Jozajtis
!!!END: 2021-11-14
!!!YEC: Copyright 2022 Narodowy Instytut Fryderyka Chopina (https://polishscores.org)
!!!YEM: License CC-BY-4.0 (https://creativecommons.org/licenses/by/4.0)
